src/assets/telegram.svg

<svg fill="none" height="24" viewBox="0 0 25 24" width="25" xmlns="http://www.w3.org/2000/svg"><circle cx="12.0781" cy="12" fill="#2d85e9" r="12"/><path d="m9.83516 17.6191.21754-3.2857 5.9655-5.37522c.2641-.2408-.0544-.35731-.4039-.14758l-7.36373 4.6528-3.18472-1.0098c-.68355-.1942-.69131-.668.15535-1.0098l12.4049-4.78483c.567-.25633 1.1107.13982.8932 1.00979l-2.1127 9.95034c-.1476.7068-.5748.8777-1.1652.5515l-3.2158-2.3769-1.5457 1.4991c-.1787.1787-.3263.3263-.64474.3263z" fill="#fff"/></svg>

<svg width="25" height="24" viewBox="0 0 25 24" fill="none" xmlns="http://www.w3.org/2000/svg">
<circle cx="12.0781" cy="12" r="12" fill="#2D85E9"/>
<path d="M9.83516 17.6191L10.0527 14.3334L16.0182 8.95818C16.2823 8.71738 15.9638 8.60087 15.6143 8.8106L8.25057 13.4634L5.06585 12.4536C4.3823 12.2594 4.37454 11.7856 5.2212 11.4438L17.6261 6.65897C18.1931 6.40264 18.7368 6.79879 18.5193 7.66876L16.4066 17.6191C16.259 18.3259 15.8318 18.4968 15.2414 18.1706L12.0256 15.7937L10.4799 17.2928C10.3012 17.4715 10.1536 17.6191 9.83516 17.6191Z" fill="white"/>
</svg>
